X: 1
T: Avila Leblanc
S: http://www.acadianfiddle.com/new-page/
R: reel
Z: 2015 John Chambers <jc:trillian.mit.edu>
M: C|
L: 1/8
K: D
AG |\
FGA2 d3A | BAGB ABAG |\
FGA2 d2f2 | fedf [1 e2 :|[2 efgf ||
|:\
e2ce Acef | fedc Bcdf |\
e2ce Acef | fedc [1 Bcdf :|2 B2AG |]
